X:60
T:I am a Sprightly Lad. LIT.060
M:2/2
Q:1/2=140
L:1/4
B:Wm. Litten MS, 1802
Z:Village Music Project 2017 Anne Wride
K:F
c | FcAd | BGGc | FcAd | c2Gc |
FcAd | BGGc | FBAc | d2 B2 |
f3d | e2c2 | f3d | e2cA/F/ |
fAAf | dBBd | cBAG | A2Fc |
fAAf | dBBd | cBAG | A2F |]

